X:1
T:Title
%%score { ( 1 3 ) | 2 }
L:1/8
Q:1/4=100
M:4/4
K:C
V:1 treble nm="Grand Piano"
V:3 treble 
V:2 bass 
V:1
 [EG]2 [EG]>[EG] [_E^F][=EG][=FA][EG] | [Ec]4 [EG]4 | A2 A>B cBcA | [EG]6 z2 | c2 c>c dcBA | %5
w: Frank~M.~Davis * * * * * *|||||
 [EG]4 [Ec]4 | B2 B>B BBAB | [Ec]6 z2 | G6 z2 | F6 z2 | B6 z2 | c4 z4 | c2 c>c dcBA | [EG]4 [Ec]4 | %14
w: |||||||||
 B2 B>B BBAB | [Ec]6 z2 |] %16
w: ||
V:2
 [C,C]2 [C,C]>[C,C] [C,C][C,C][C,C][C,C] | [C,G,]4 [C,C]4 | %2
 [F,CF]2 [F,CF]>[F,B,F] [F,A,F][F,^G,F][F,A,F][F,CF] | [C,C]6 z2 | %4
 [A,E]2 [A,E]>[A,E] [F,A,F][F,A,F][F,B,F][F,CF] | [C,C]4 [C,G,]4 | %6
 [G,D]2 [G,D]>[G,D] [G,D][G,D][G,F][G,F] | [C,G,]6 z2 | [C,C]2 [C,C]2 [C,C]2 z2 | %9
 [G,B,D]2 [G,B,]2 [G,B,]2 z2 | [G,D]2 G,2 G,2 z2 | [C,G,]2 [C,G,]2 [C,C]2 z2 | %12
 [A,E]2 [A,E]>[A,E] [F,A,F][F,A,F][F,B,F][F,CF] | [C,C]4 [C,G,]4 | %14
 [G,D]2 [G,D]>[G,D] [G,D][G,D][G,F][G,F] | [C,G,]6 z2 |] %16
V:3
 x8 | x8 | x8 | x8 | x8 | x8 | x8 | x8 | E2 E2 E2 EG | z2 D2 D2 z2 | z2 D2 D2 Bd | E2 E2 [EG]2 z2 | %12
 x8 | x8 | x8 | x8 |] %16

